packages/Snapp/src/HeartIcon/index.svg

<?xml version="1.0" encoding="UTF-8"?>
<svg width="24px" height="24px" viewBox="0 0 24 24" version="1.1" xmlns="http://www.w3.org/2000/svg" xmlns:xlink="http://www.w3.org/1999/xlink">
    <title>Icons/24/Heart</title>
    <g id="Icons/24/Heart" stroke="none" stroke-width="1" fill="none" fill-rule="evenodd">
        <rect id="Container" fill-opacity="0" fill="#D8D8D8" fill-rule="nonzero" x="0" y="0" width="24" height="24"></rect>
        <path d="M22.0526914,9.75157667 C22.0526914,11.2770392 21.446519,12.7399832 20.3677669,13.8182289 L12.7332215,21.4527744 C12.3426972,21.8432987 11.7095322,21.8432987 11.3190079,21.4527744 L3.68446245,13.8182289 C1.43851249,11.5722789 1.43851252,7.93087448 3.68446251,5.68492449 C5.9304125,3.4389745 9.5718169,3.43897447 11.8177669,5.68492444 L12.0261147,5.89327222 L12.2342965,5.68509042 C13.3127082,4.60617241 14.7756522,4 16.3011147,4 C17.8264989,4 19.2893712,4.60611023 20.3677669,5.68492442 C21.4465811,6.76332022 22.0526914,8.22619243 22.0526914,9.75157667 Z M12.0261147,19.331454 L18.0380988,13.3194699 L18.9537194,12.4038494 C19.6573615,11.7005374 20.0526914,10.7464435 20.0526914,9.75157667 C20.0526914,8.75670984 19.6573615,7.8026159 18.9537194,7.09930395 C18.2500755,6.39532983 17.2959815,6 16.3011147,6 C15.3062479,6 14.3521539,6.39532983 13.648676,7.099138 L12.7332215,8.01459254 C12.3426972,8.40511684 11.7095322,8.40511684 11.3190079,8.01459254 L10.4035534,7.09913801 C8.93865194,5.63423662 6.56357749,5.63423664 5.09867607,7.09913805 C3.63377466,8.56403946 3.63377464,10.9391139 5.09867602,12.4040153 L12.0261147,19.331454 Z" id="Path" fill="#404040" fill-rule="nonzero"></path>
    </g>
</svg>

<svg viewBox="0 0 24 24" xmlns="http://www.w3.org/2000/svg" fill="currentColor" focusable="false">
  <path d="M22.053 9.752a5.75 5.75 0 01-1.685 4.066l-7.635 7.635a1 1 0 01-1.414 0l-7.635-7.635a5.751 5.751 0 018.134-8.133l.208.208.208-.208a5.75 5.75 0 019.819 4.067zm-10.027 9.58l6.012-6.013.916-.915a3.75 3.75 0 10-5.305-5.305l-.916.916a1 1 0 01-1.414 0l-.915-.916a3.751 3.751 0 00-5.305 5.305l6.927 6.927z"/>
</svg>
